resources/icons/16px/unlink.svg

<svg width="16" height="16" viewBox="0 0 16 16" fill="none" xmlns="http://www.w3.org/2000/svg">
<path d="M11.9975 0.00500107C14.2061 0.00500107 15.995 1.79388 15.995 4.0025C15.995 5.11181 15.5353 6.0912 14.8058 6.81075L14.8257 6.83074L13.8264 7.83011L13.8064 7.81012C13.2562 8.36798 12.5482 8.76807 11.7539 8.92548L10.8249 7.99643L12.4073 6.401L13.4066 5.40163L13.3966 5.39163C13.7564 5.03186 13.9963 4.54217 13.9963 3.99251C13.9963 2.8932 13.0968 1.99376 11.9975 1.99376C11.4479 1.99376 10.9582 2.23361 10.5984 2.59338L10.5884 2.58339L8.00009 5.17168L7.07558 4.24717C7.23517 3.45247 7.63942 2.74409 8.18988 2.19363L8.16989 2.17365L9.16927 1.17427L9.18925 1.19426C9.90881 0.464714 10.8982 0.00500107 11.9975 0.00500107ZM2.29288 2.29289C2.6834 1.90237 3.31656 1.90237 3.70709 2.29289L13.7071 12.2929C14.0976 12.6834 14.0976 13.3166 13.7071 13.7071C13.3166 14.0976 12.6834 14.0976 12.2929 13.7071L8.93564 10.3499C8.97564 10.562 8.99937 10.7781 8.99937 10.9981C8.99937 12.0974 8.53965 13.0868 7.81011 13.8064L7.8301 13.8263L6.83072 14.8257L6.81073 14.8057C6.09118 15.5353 5.1018 15.995 4.00249 15.995C1.79387 15.995 0.00498962 14.2061 0.00498962 11.9975C0.00498962 10.8982 0.464702 9.90879 1.19424 9.18924L1.17426 9.16925L2.17363 8.16988L2.19362 8.18986C2.91317 7.46032 3.90255 7.00061 5.00186 7.00061C5.22509 7.00061 5.44063 7.02369 5.65086 7.06509L2.29288 3.7071C1.90235 3.31658 1.90235 2.68341 2.29288 2.29289ZM8.00243 9.41666L5.71142 11.7077C5.53153 11.8876 5.28168 11.9975 5.00186 11.9975C4.4522 11.9975 4.00248 11.5478 4.00248 10.9981C4.00248 10.7183 4.11242 10.4685 4.2923 10.2886L6.58332 7.99755L5.88875 7.30298L2.59337 10.5984L2.60336 10.6084C2.24359 10.9681 2.00374 11.4578 2.00374 12.0075C2.00374 13.1068 2.90318 14.0062 4.00249 14.0062C4.55215 14.0062 5.04184 13.7664 5.40161 13.4066L5.41161 13.4166L8.70699 10.1212L8.00243 9.41666ZM8.70465 5.87623L10.2886 4.29232C10.4685 4.11243 10.7183 4.0025 10.9981 4.0025C11.5478 4.0025 11.9975 4.45222 11.9975 5.00187C11.9975 5.2817 11.8876 5.53154 11.7077 5.71143L10.1238 7.29534L8.70465 5.87623Z" fill="black"/>
</svg>

<svg xmlns="http://www.w3.org/2000/svg" viewBox="0 0 16 16">
  <path d="M11.998.005a3.996 3.996 0 0 1 3.997 3.998c0 1.109-.46 2.088-1.19 2.808l.02.02-.999 1-.02-.02a3.97 3.97 0 0 1-2.052 1.114l-.93-.929 1.583-1.595 1-1-.01-.01c.36-.36.6-.849.6-1.398 0-1.1-.9-2-2-2-.55 0-1.039.24-1.399.6l-.01-.01L8 5.172l-.924-.925A4.04 4.04 0 0 1 8.19 2.194l-.02-.02 1-1 .02.02A3.93 3.93 0 0 1 11.997.005M2.293 2.293a1 1 0 0 1 1.414 0l10 10a1 1 0 0 1-1.414 1.414L8.936 10.35q.061.318.063.648c0 1.1-.46 2.089-1.189 2.808l.02.02-1 1-.02-.02a3.93 3.93 0 0 1-2.808 1.189 3.996 3.996 0 0 1-3.997-3.997c0-1.1.46-2.09 1.19-2.809l-.02-.02.999-1 .02.02a3.93 3.93 0 0 1 2.808-1.188q.334.001.649.064L2.293 3.707a1 1 0 0 1 0-1.414m5.71 7.124-2.292 2.29a1.002 1.002 0 0 1-1.42-1.42l2.292-2.29-.694-.694-3.296 3.295.01.01c-.36.36-.6.85-.6 1.4 0 1.099.9 1.998 2 1.998.55 0 1.039-.24 1.399-.6l.01.01 3.295-3.295zm.702-3.54 1.584-1.585a1.002 1.002 0 0 1 1.42 1.42l-1.585 1.583z"/>
</svg>
